lib/flags/vc-saint-vincent-and-the-grenadines.svg

<svg xmlns="http://www.w3.org/2000/svg" fill="none" aria-hidden="true" viewBox="0 0 42 30"><g id="Country=VC - Saint Vincent and the Grenadines, Size=sm (36x24)" filter="url(#filter0_dd_91_24117)"><g clip-path="url(#clip0_91_24117)"><g id="flag"><mask id="mask0_91_24117" width="36" height="24" x="3" y="2" maskUnits="userSpaceOnUse" style="mask-type:alpha"><rect id="mask" width="36" height="24" x="3" y="2" fill="white"/></mask><g mask="url(#mask0_91_24117)"><g id="contents"><path id="middle" fill="#FFDC17" fill-rule="evenodd" d="M12 2H30V26H12V2Z" clip-rule="evenodd"/><path id="right" fill="#5FBF2B" fill-rule="evenodd" d="M30 2H39V26H30V2Z" clip-rule="evenodd"/><path id="left" fill="#2E42A5" fill-rule="evenodd" d="M3 2H12V26H3V2Z" clip-rule="evenodd"/><g id="mark"><path id="Combined Shape" fill="#5FBF2B" fill-rule="evenodd" d="M25.1922 7.6001L21.7721 12.063L25.1922 16.368L28.6123 12.063L25.1922 7.6001ZM16.8119 7.67894L13.125 12.063L16.5451 16.2893L19.9653 12.063L16.8119 7.67894ZM17.4485 16.9889L21.1354 12.6049L24.2888 16.9889L21.1354 21.5012L17.4485 16.9889Z" clip-rule="evenodd"/></g></g></g></g></g></g><defs><filter id="filter0_dd_91_24117" width="42" height="30" x="0" y="0" color-interpolation-filters="sRGB" filterUnits="userSpaceOnUse"><feFlood flood-opacity="0" result="BackgroundImageFix"/><feColorMatrix in="SourceAlpha" result="hardAlpha" values="0 0 0 0 0 0 0 0 0 0 0 0 0 0 0 0 0 0 127 0"/><feOffset dy="1"/><feGaussianBlur stdDeviation="1"/><feColorMatrix values="0 0 0 0 0.0627451 0 0 0 0 0.0941176 0 0 0 0 0.156863 0 0 0 0.06 0"/><feBlend in2="BackgroundImageFix" result="effect1_dropShadow_91_24117"/><feColorMatrix in="SourceAlpha" result="hardAlpha" values="0 0 0 0 0 0 0 0 0 0 0 0 0 0 0 0 0 0 127 0"/><feOffset dy="1"/><feGaussianBlur stdDeviation="1.5"/><feColorMatrix values="0 0 0 0 0.0627451 0 0 0 0 0.0941176 0 0 0 0 0.156863 0 0 0 0.1 0"/><feBlend in2="effect1_dropShadow_91_24117" result="effect2_dropShadow_91_24117"/><feBlend in="SourceGraphic" in2="effect2_dropShadow_91_24117" result="shape"/></filter><clipPath id="clip0_91_24117"><rect width="36" height="24" x="3" y="2" fill="white" rx="2"/></clipPath></defs></svg>

<svg xmlns="http://www.w3.org/2000/svg" fill="none" aria-hidden="true" viewBox="0 0 42 30"><g filter="url(#a)"><g clip-path="url(#b)"><mask id="c" width="36" height="24" x="3" y="2" maskUnits="userSpaceOnUse" style="mask-type:alpha"><path fill="#fff" d="M3 2h36v24H3z"/></mask><g fill-rule="evenodd" clip-rule="evenodd" mask="url(#c)"><path fill="#FFDC17" d="M12 2h18v24H12V2Z"/><path fill="#5FBF2B" d="M30 2h9v24h-9V2Z"/><path fill="#2E42A5" d="M3 2h9v24H3V2Z"/><path fill="#5FBF2B" d="m25.192 7.6-3.42 4.463 3.42 4.305 3.42-4.305-3.42-4.463Zm-8.38.079-3.687 4.384 3.42 4.226 3.42-4.226-3.153-4.384Zm.636 9.31 3.687-4.384 3.154 4.384-3.154 4.512-3.687-4.512Z"/></g></g></g><defs><clipPath id="b"><rect width="36" height="24" x="3" y="2" fill="#fff" rx="2"/></clipPath><filter id="a" width="42" height="30" x="0" y="0" color-interpolation-filters="sRGB" filterUnits="userSpaceOnUse"><feFlood flood-opacity="0" result="BackgroundImageFix"/><feColorMatrix in="SourceAlpha" result="hardAlpha" values="0 0 0 0 0 0 0 0 0 0 0 0 0 0 0 0 0 0 127 0"/><feOffset dy="1"/><feGaussianBlur stdDeviation="1"/><feColorMatrix values="0 0 0 0 0.0627451 0 0 0 0 0.0941176 0 0 0 0 0.156863 0 0 0 0.06 0"/><feBlend in2="BackgroundImageFix" result="effect1_dropShadow_91_24117"/><feColorMatrix in="SourceAlpha" result="hardAlpha" values="0 0 0 0 0 0 0 0 0 0 0 0 0 0 0 0 0 0 127 0"/><feOffset dy="1"/><feGaussianBlur stdDeviation="1.5"/><feColorMatrix values="0 0 0 0 0.0627451 0 0 0 0 0.0941176 0 0 0 0 0.156863 0 0 0 0.1 0"/><feBlend in2="effect1_dropShadow_91_24117" result="effect2_dropShadow_91_24117"/><feBlend in="SourceGraphic" in2="effect2_dropShadow_91_24117" result="shape"/></filter></defs></svg>
